X:1
T:Title
%%score { ( 1 3 ) | 2 }
L:1/8
M:4/4
K:F
V:1 treble nm="Grand Piano"
V:3 treble 
V:2 bass 
V:1
 z4 z2[Q:1/4=108] CC | F2 F2 F2 F[EG] | A2 B2 A2 AA | G2 A2 B2 [Ec]2 |[M:3/4] A6 |[M:1/4] CC | %6
[M:4/4] F2 F2 F2 F[EG] | A2 B2 A2 AA | G2 c2 =B2 d2 |[M:3/4] [Ec]6 |[M:1/4] [Ec][EA] | %11
[M:4/4] F6 z2 | FEE_E =E2 [Ec][Ec] | [Be]2 [Bd]2 [DAc]2 [CGB]2 |[M:3/4] A6 |[M:1/4] AB | %16
[M:4/4] c6 z2 |[M:9/8] edd d [Fd]2- [Fd][Fd][Fd] |[M:4/4] [Fc]3 [Fc] [Ec]2 E2 |[M:3/4] F6 |] %20
V:2
 z4 z2 [F,A,][F,A,] | [F,A,C]2 [F,B,D]2 [F,A,C]2 [F,A,C][C,C] | %2
 [F,CF]2 [F,DF]2 [F,CF]2 [F,CF][F,CF] | [B,DF]2 [A,D^F]2 [G,DG]2[K:bass] [C,C]2 |[M:3/4] [F,CF]6 | %5
[M:1/4] [F,A,][F,A,] |[M:4/4] [F,A,C]2 [F,B,D]2 [F,A,C]2 [F,A,C][C,C] | %7
 [F,CF]2 [F,DF]2 [F,CF]2 [^F,C_E][F,CE] | [G,CE]2 [G,EG]2 [G,DG]2 [G,=B,F]2 | %9
[M:3/4][K:bass] [C,C]6 |[M:1/4] [C,C][C,B,] |[M:4/4] [F,A,]2 [F,A,][F,A,] [F,A,]2 [F,A,C][F,A,C] | %12
 [G,B,C][G,B,C][G,B,C][G,B,C] [G,B,C]2 [C,B,][C,B,] | [C,C]2 [C,C]2 C,D, E,2 |[M:3/4] [F,CF]6 | %15
[M:1/4] [F,F][F,G,F] |[M:4/4] [F,A,F]2 [F,A,][F,A,] [F,A,]2[K:treble] [A,CF][A,CF] | %17
[M:9/8] [B,F][B,F][B,F] [B,F][K:bass] [B,,B,]2- [B,,B,][=B,,_A,][B,,A,] | %18
[M:4/4] [C,A,]3 [C,A,] [C,G,]2 [C,B,C]2 |[M:3/4] [F,A,C]6 |] %20
V:3
 x8 | x8 | x8 | x8 |[M:3/4] x6 |[M:1/4] x2 |[M:4/4] x8 | x8 | x8 |[M:3/4] x6 |[M:1/4] x2 | %11
[M:4/4] z2 CC C2 FG | x8 | x8 |[M:3/4] x6 |[M:1/4] x2 |[M:4/4] z2 FF F2 fe |[M:9/8] x9 | %18
[M:4/4] x8 |[M:3/4] x6 |] %20

